X:68
C:Page 34
T:Miss Shuplands(?) Dance. MBe.68
S:Matthew Betham MS, Towcett Cumbria, 1815
O:England;Cumbria;Towcett
Z:VMP – Hugh Taylor, 2012
M:6/8
L:1/8
Q:3/8=120
R:.Jig
C:Name partly (Shup) illegible
N:NB-What could be the same hand has written “c” above the ‘c’ note
N:The last 4 bars of the B part are continued on the top of page 35
K:G
(B/A/)|G2 D DED|DED D2 G|F2 G A2 B|cBA dBG|
G2 D DED|DED D2 G|FGA cAF|G3 G2:|
|:B/c/|d2 B d2 B|g2 e dBG|dcB d”^NB”cB|”sic”B2 A2 (Bc)|
d2 B d2 B|g2 d g2 b|bag fge|”cr in MS”d3 d2:|

